X:15
T:Grove,The. WCl.15
M:6/8
L:1/8
Q:3/8=100
S:William Clarke MS,Lincoln,1770.
R:.Jig
O:Lincoln
A:England
Z:vmp.Barry Callaghan
K:C
c>dc GEG|(c/2d/2ec) (d/2e/2fd)|c>dc GEG|(d/2e/2fB) ” cr”d3:|!
|:g>ag ece|fdc BAG|F2d E2c|dcB c2:|

